X: 224
T: Bağ-ı Hüsnün O Güzel Gülleri...
C: Kemal Emin Bara
O: Turkey
F: http://compmusic.upf.edu/node/140
N: ussak--sarki--aksak--bag-i_husnun--kemal_emin_bara
N: makam= ussak
N: form= sarki
N: usul= aksak = 9/8
M: 9/8
L: 1/16
K: C _2/4B   
Q: 1/4=132
%%MIDI tuningsystem comma53
aggf feed dcde f6 | ef efag feed dcd6  | 
w:  ARANAĞME  |   | 
cedf egfa gfed dcBA G2 | AB cde2 dccB BAA4z2  | 
w:   |   | 
aggf feed dcde f6 | ef efag feed dcd6  | 
w:  ARANAĞME  |   | 
cedf egfa gfed dcBA G2 | AB cde2 dccB BAA4z2  | 
w:   |   | 
z2G4A2 A4 A4 B2 | G4c2 d2c2 B2A2 B2d2  | \
w:  Bağ_ ı  hüs nün   |  *  o  gü zel   | 
dc2B B2BA A8 z2 | 
w:  gül *  *  *  le *  ri   | 
e2 {a}fed4e2 {f}edc6  | z2Bc d2e2 f2g2 e4 ed | \
w:  sol   |  sol  | 
d6 c2B3AA4z2  | 
w:  du   SAZ  | 
z2G4A2 A4 A4 B2 | G4c2 d2c2 B2A2 B2d2  | \
w:  Bağ_ ı  hüs nün   |  *  o  gü zel   | 
dc2B B2BA A8 z2 | 
w:  gül *  *  *  le *  ri   | 
e2 {a}fed4e2 {f}edc6  | z2Bc d2e2 f2g2 e4 ed | \
w:  sol   |  sol  | 
d6 c2B2 c2d4z2  | 
w:  du   SAZ  | 
z4 e2{f}ed d2ed d6 | c3de2 eded cBc4(3BAB  | 
w:  O  *  ge *  çen   |  gün *  le ri *  miz   | 
z2d2 c2_1/4B2 ^A2B2 c4 c_2/4B | B6 d2^cd ecd6  | \
w:  bir  *  ha yal_ *  ol  |  du   SAZ  | 
z4 e2{f}ed {c}d4 cdef g2 | 
w:  O  *  ge *  *  çen   | 
{g}e3dd2 {f}edd8z2  | z2d2 c2B2 A2BA G6 | \
w:  *  gün *  le *  ri *  miz   |  bir   | 
G2 d2c2 B2A2 B2c6  | 
w:  *  bir   | 
z2BA B2c2 cB2c B2A4 | A6 d2c2 d2e4z2  | \
w:  bir  *  *  ha yal_ *  *  ol  |  du   SAZ  | 
z2d4e2 e4 e2^1/4f2 g2 | 
w:  Ufk_ u  üm mî  | 
e4d2 f2e2 d2c2 =B2A2  | =B2{d}cB BAA^G A8 z2 | \
w:  *  de  ha zan   |  göl *  *  *  *  *  ge *  si   | 
e2 {g}fed4e2 {f}edc6  | 
w:  dol   | 
z2Bc d2e2 f2g2 {g}e4 ed | d6 efed cde4z2  | \
w:  dol  |  du   SAZ  | 
z2d4e2 e4 e2^1/4f2 g2 | 
w:  Ufk_ u  üm mî  | 
e4d2 f2e2 d2c2 =B2A2  | =B2{d}cB BAA^G A8 z2 | \
w:  *  de  ha zan   |  göl *  *  *  *  *  ge *  si   | 
e2 {g}fed4e2 {f}edc6  | 
w:  dol   | 
z2Bc d2e2 f2g2 {g}e4 ed | d6 c2B2 c2d4z2  | \
w:  dol  |  du   SAZ  | 
z4 e2{f}ed d2ed d6 | 
w:  O  *  ge *  çen   | 
c3de2 eded cBc4(3BAB  | z2d2 c2_1/4B2 ^A2B2 c4 c_2/4B | 
w:  gün *  le ri *  miz   |  bir  *  ha yal_ *  ol  | 
B6 d2^cd ecd6  | z4 e2{f}ed {c}d4 cdef g2 | \
w:  du   SAZ  |  O  *  ge *  *  çen   | 
{g}e3dd2 {f}edd8z2  | 
w:  *  gün *  le *  ri *  miz   | 
z2d2 c2B2 A2BA G6 | G2 d2c2 B2A2 B2c6  | \
w:  bir   |  *  bir   | 
z2BA B2c2 cB2c B2A4 | 
w:  bir  *  *  ha yal_ *  *  ol  | 
A6 dccB BAA4z2  | |


